X:1
T:Brian Boru (?)
M:6/8
L:1/8
K:G
 B| GFE E2 B| GFE E2 A| FED D2 A| FED D2 B| GFE E2 B| GFE E3| EGA B2 A|\
 G E2- E2 B| GFE E2 B| GFE E2 A| FED D2 A| FED D2 B| GFE E2 B| GFE E3|\
 EGA B2 A| G E2- E3| DGA B2 A| B2 A B2 A| DFG A2 F| A2 F A2 F| EGA B2 A|\
 B2 A B3| EGA B2 A| G E2- E2 z| DGA B2 A| B2 A B2 A| DFG A2 F| A2 F A2 F|\
 EGA B2 A| B2 A B3| EGA B2 A| G E2- E2||
